X:1
T: Niel Gow's Wife
T: Neil Gow's Wife
C:Niel Gow
C:Neil Gow
R:Strathspey
Q: 128
K:Gm
M:4/4
L:1/16
|:d2|BG3 G3B AF3 F3A|BG3 G3A B2A2 Bg3|BG3 G3B AF3 F3A|BB3 c3B F2B2-B2d2|
BG3 G3B AF3 F3A|BG3 G3A B2A2 Bg3|BG3 G3B AF3 F3A|BB3 c3B F2B2-B2d2|
BB3 d2B2 f3B d2B2|FF3 A3F c3F A3c|BB3 f3B f3B df3|gg3 b2g2 d2g2 g2ab|
fd3 d3f ec3 c3e|dB3 B3d B2A2 B2F2|GG3 BB3 c2c2 d3c|B3G A2G^F D2G2-G2-:|
